X:1
T:Pach Pi : Passe-pied de Mur (TBI 1477)
Z:Roger Ngaret (Novembre 99)
C:Trad.
S:Tonio Breizh-Izel (Polig Monjarret)
A:Bretagne
M:4/4
L:1/8
Q:70
K:Bb
E | EG GF G>F ED | EG GF G2 E :| G | GF EG B-A/G/ F2 |
GG/-F/ EG B2 F>G | GF EG B-A/G/ FG/-A/ | B>A GE FG/-F/ E |]
